X: 1
T: French Girl's Waltz
C: Randy Marchany
R: waltz
Z: 2010 John Chambers <jc:trillian.mit.edu>
F: http://www.enessay.com/images/french1.gif
M: 3/4
L: 1/8
K: G
d2 \
| "G"d2 Bc d2 | "D7/f#"d3 c BA | "Em"B2 GA B2 | "D7"B3 A GF \
| "C"E2 EF G2 ||1 "D7"F3 G A2 | "Em"B3 d BG | "D7/f#"A4 \
:|2 "D7"F2 FG AF | "Em"E4 GB | e4 ||
|: "D7" D2 \
| "C"EF G3 E | "D7"FG A3 F | "Em"GA B2 d2 | "D7/f#"d3 c BA \
| "G"B2 Bc dB ||1 "D7"A3 B c2 | "Em"B3 d BG | "D7"A4 \
:|2 "D7"A3 G F2 | "C"G6- | "G"HG4 |]
